X:259
T:The River Lea
M:2/4
L:1/16
Q:1/4=100
K:D
AA|\
A2A2 F2FF|F2F2 D2D2|D2D2  D2F2|G4 z2B2|
BBBB G2G2|E2E2 C2AA|B2A2 ^G2A2|F4 z2A2|
A2G2 F2FF|F2F2-F2D2|D2D2  E2F2|G4 z2BB|
B2GG G2E2|C2A2-A2A2|B2AA  G2E2|D4 z2A2|
F2A2 B2A2|D6     D2|C3D   E3E |C2B,2 z2B,2|
B,B,3 E2E2|G2G2 B3B|A3F  E2A,2|D4 z2 ||
